modules/hawcons-stroke/icons/icon-1-flashed-face.svg

<?xml version="1.0" encoding="UTF-8" standalone="no"?>
<svg width="32px" height="32px" viewBox="0 0 32 32" version="1.1" xmlns="http://www.w3.org/2000/svg" xmlns:xlink="http://www.w3.org/1999/xlink" xmlns:sketch="http://www.bohemiancoding.com/sketch/ns">
    <!-- Generator: Sketch 3.0.3 (7891) - http://www.bohemiancoding.com/sketch -->
    <title>icon 1 flashed face</title>
    <desc>Created with Sketch.</desc>
    <defs></defs>
    <g id="Page-1" stroke="none" stroke-width="1" fill="none" fill-rule="evenodd" sketch:type="MSPage">
        <g id="icon-1-flashed-face" sketch:type="MSArtboardGroup" fill="#929292">
            <path d="M16.5,29 C23.4035597,29 29,23.4035597 29,16.5 C29,9.59644029 23.4035597,4 16.5,4 C9.59644029,4 4,9.59644029 4,16.5 C4,23.4035597 9.59644029,29 16.5,29 L16.5,29 Z M16.5,28 C22.8512749,28 28,22.8512749 28,16.5 C28,10.1487251 22.8512749,5 16.5,5 C10.1487251,5 5,10.1487251 5,16.5 C5,22.8512749 10.1487251,28 16.5,28 L16.5,28 Z M12,16 C13.6568543,16 15,14.6568543 15,13 C15,11.3431457 13.6568543,10 12,10 C10.3431457,10 9,11.3431457 9,13 C9,14.6568543 10.3431457,16 12,16 L12,16 Z M12,15 C13.1045696,15 14,14.1045696 14,13 C14,11.8954304 13.1045696,11 12,11 C10.8954304,11 10,11.8954304 10,13 C10,14.1045696 10.8954304,15 12,15 L12,15 Z M21,16 C22.6568543,16 24,14.6568543 24,13 C24,11.3431457 22.6568543,10 21,10 C19.3431457,10 18,11.3431457 18,13 C18,14.6568543 19.3431457,16 21,16 L21,16 Z M21,15 C22.1045696,15 23,14.1045696 23,13 C23,11.8954304 22.1045696,11 21,11 C19.8954304,11 19,11.8954304 19,13 C19,14.1045696 19.8954304,15 21,15 L21,15 Z M12,14 C12.5522848,14 13,13.5522848 13,13 C13,12.4477152 12.5522848,12 12,12 C11.4477152,12 11,12.4477152 11,13 C11,13.5522848 11.4477152,14 12,14 L12,14 Z M21,14 C21.5522848,14 22,13.5522848 22,13 C22,12.4477152 21.5522848,12 21,12 C20.4477152,12 20,12.4477152 20,13 C20,13.5522848 20.4477152,14 21,14 L21,14 Z M14,21 L14,22 L19,22 L19,21 L14,21 L14,21 Z" id="flashed-face" sketch:type="MSShapeGroup"></path>
        </g>
    </g>
</svg>

<svg width="32" height="32" viewBox="0 0 32 32" xmlns="http://www.w3.org/2000/svg"><path d="M16.5 29C23.404 29 29 23.404 29 16.5S23.404 4 16.5 4 4 9.596 4 16.5 9.596 29 16.5 29zm0-1C22.851 28 28 22.851 28 16.5S22.851 5 16.5 5 5 10.149 5 16.5 10.149 28 16.5 28zM12 16a3 3 0 1 0 0-6 3 3 0 0 0 0 6zm0-1a2 2 0 1 0 0-4 2 2 0 0 0 0 4zm9 1a3 3 0 1 0 0-6 3 3 0 0 0 0 6zm0-1a2 2 0 1 0 0-4 2 2 0 0 0 0 4zm-9-1a1 1 0 1 0 0-2 1 1 0 0 0 0 2zm9 0a1 1 0 1 0 0-2 1 1 0 0 0 0 2zm-7 7v1h5v-1h-5z" fill="#929292" fill-rule="evenodd"/></svg>
